X:1
T:Title
%%score [ ( 1 2 ) ( 3 4 ) ]
L:1/8
Q:1/4=90
M:4/4
K:Eb
V:1 treble nm="Midi_74"
V:2 treble 
V:3 bass nm="Midi_69"
V:4 bass 
V:1
"^John Bacchus Dykes\n(1823-76)""^Harriet Auber\n(1773-1862)""^Our blest Redeemer, ere He breathed""^St Cuthbert (86. 84)" E2 | %1
 E3 E F2 G2 | A3 A G2 B2 | e2 G2 G2 =A2 | B6 || A2 | G3 G A2 B2 | c2 c2 B2 G2 | B6 A2 | G6 |] %10
V:2
 B,2 | B,3 E E2 E2 | E3 E E2 (ED) | E2 E2 E2 E2 | D6 || D2 | E3 E E2 _D2 | C2 =D2 E2 E2 | E4 D4 | %9
w: Our|blest Re- deem- er,|ere He breathed His *|ten- der last fare-|well,|||||
w: He|came in tongues of|liv- ing flame, To *|teach, con- vince, sub-|due;|||||
w: ~~He|came, sweet in- fluence|to im- part, A *|gra- cious, will- ing|Guest,|||||
w: And|His that gen- tle|voice we hear, Soft *|as the breath of|even,|||||
w: And|ev- ery vir- tue|we pos- sess, And *|ev- ery vic- tory|won,|||||
w: Spi-|rit of pu- ri-|ty and grace, Our *|weak- ness, pit- ying|see;|||||
 E6 |] %10
w: |
w: |
w: |
w: |
w: |
w: |
V:3
 G,2 | G,3 G, A,2 B,2 | C2 C2 B,2 (G,A,) | B,2 B,2 B,2 C2 | B,6 || B,2 | B,3 B, C2 G,2 | %7
w: |||||A|Guide, a Com- fort-|
w: |||||All-|power- ful as the|
w: |||||While|He can find one|
w: |||||That|checks each fault, that|
w: |||||And|ev- ery thought of|
w: |||||O|make our hearts Thy|
 A,2 A,2 B,2 B,2 | G,4 (F,2 B,2) | B,6 |] %10
w: er be- queathed, With|us to *|dwell.|
w: wind He came, As|view- less *|too.|
w: hum- ble heart Where-|in to *|rest.|
w: calms each fear, And|speaks of *|heaven.|
w: ho- li- ness, Are|His a\- *|lone.|
w: dwell- ing- place, And|worth- ier *|Thee.|
V:4
 E,2 | E,3 E, E,2 E,2 | A,,2 A,,2 E,2 (E,F,) | G,2 E,2 C,2 F,2 | B,,6 || B,,2 | E,3 E, E,2 E,2 | %7
 A,2 F,2 G,2 E,2 | B,,4 B,,4 | E,6 |] %10

